X:66
T:Off She Goes. LIT.066
M:6/8
Q:3/8=120
L:1/8
B:Wm. Litten MS, 1802
Z:Village Music Project 2017 Anne Wride
K:D
A | F2A G2B | ABc d3 | F2A G2B | AFD E3 |
F2A G2B | ABc d2e | faf d2f | gec d2 :|
|: e | faf d2e |gbg e2g | faf d2f | ecA A2e |
faf "_c in book"d2f | gbg e2g | faf gec | gec d2 :|

